X:830
T:Sandy is My Darling
R:Reel
B:The Athole Collection
M:C|
L:1/8
K:A Minor
c|A/A/A a2 g>ede|cGG>E GAcG|A/A/A a2 egde|cAB^G A3:|
c|ABcd egde|cGGE GAcG|ABcd egde|c>AB^G A3B|ABcd egde|
cGGE GAce/^g/|aegd e>d ca|egdB A3||

